public/images/homePage/footer/wallet.svg

<svg width="33" height="38" viewBox="0 0 33 38" fill="none" xmlns="http://www.w3.org/2000/svg">
<path d="M4.65021 36L2.59766 28.7273H4.01456L5.32493 34.0717H5.3924L6.79155 28.7273H8.08061L9.48331 34.0753H9.54723L10.8576 28.7273H12.2745L10.2219 36H8.92223L7.46626 30.897H7.40945L5.94993 36H4.65021ZM13.7442 36.1101C13.3985 36.1101 13.0872 36.0485 12.8102 35.9254C12.5356 35.8 12.3178 35.6153 12.1568 35.3714C11.9982 35.1276 11.9189 34.8269 11.9189 34.4695C11.9189 34.1617 11.9757 33.9072 12.0893 33.706C12.203 33.5047 12.358 33.3438 12.5545 33.223C12.751 33.1023 12.9724 33.0111 13.2186 32.9496C13.4672 32.8857 13.7241 32.8395 13.9892 32.8111C14.3088 32.7779 14.568 32.7483 14.7669 32.7223C14.9658 32.6939 15.1102 32.6513 15.2001 32.5945C15.2925 32.5353 15.3386 32.4441 15.3386 32.321V32.2997C15.3386 32.0322 15.2593 31.825 15.1007 31.6783C14.9421 31.5315 14.7136 31.4581 14.4153 31.4581C14.1005 31.4581 13.8507 31.5268 13.6661 31.6641C13.4838 31.8014 13.3607 31.9635 13.2967 32.1506L12.0964 31.9801C12.1911 31.6487 12.3474 31.3717 12.5652 31.1491C12.783 30.9242 13.0493 30.7562 13.3642 30.6449C13.6791 30.5312 14.0271 30.4744 14.4082 30.4744C14.671 30.4744 14.9326 30.5052 15.193 30.5668C15.4535 30.6283 15.6914 30.7301 15.9068 30.8722C16.1223 31.0118 16.2951 31.2024 16.4253 31.4439C16.5579 31.6854 16.6241 31.9872 16.6241 32.3494V36H15.3884V35.2507H15.3457C15.2676 35.4022 15.1575 35.5443 15.0155 35.6768C14.8758 35.8071 14.6994 35.9124 14.4864 35.9929C14.2757 36.071 14.0283 36.1101 13.7442 36.1101ZM14.078 35.1655C14.336 35.1655 14.5598 35.1146 14.7491 35.0128C14.9385 34.9086 15.0841 34.7713 15.1859 34.6009C15.2901 34.4304 15.3422 34.2446 15.3422 34.0433V33.4006C15.3019 33.4337 15.2333 33.4645 15.1362 33.4929C15.0415 33.5213 14.935 33.5462 14.8166 33.5675C14.6982 33.5888 14.5811 33.6077 14.4651 33.6243C14.3491 33.6409 14.2484 33.6551 14.1632 33.6669C13.9714 33.6929 13.7998 33.7356 13.6483 33.7947C13.4968 33.8539 13.3772 33.9368 13.2896 34.0433C13.202 34.1475 13.1582 34.2824 13.1582 34.4482C13.1582 34.6849 13.2447 34.8636 13.4175 34.9844C13.5903 35.1051 13.8105 35.1655 14.078 35.1655ZM18.8023 28.7273V36H17.5168V28.7273H18.8023ZM21.0097 28.7273V36H19.7242V28.7273H21.0097ZM24.3464 36.1065C23.7995 36.1065 23.3272 35.9929 22.9295 35.7656C22.5341 35.536 22.2299 35.2116 22.0168 34.7926C21.8038 34.3712 21.6972 33.8752 21.6972 33.3047C21.6972 32.7436 21.8038 32.2512 22.0168 31.8274C22.2323 31.4013 22.5329 31.0698 22.9188 30.8331C23.3047 30.594 23.7581 30.4744 24.2789 30.4744C24.6151 30.4744 24.9323 30.5289 25.2306 30.6378C25.5313 30.7443 25.7964 30.91 26.0261 31.1349C26.2581 31.3598 26.4404 31.6463 26.5729 31.9943C26.7055 32.34 26.7718 32.7519 26.7718 33.2301V33.6243H22.3009V32.7578H25.5396C25.5372 32.5116 25.4839 32.2926 25.3798 32.1009C25.2756 31.9067 25.13 31.754 24.943 31.6428C24.7583 31.5315 24.5429 31.4759 24.2967 31.4759C24.0339 31.4759 23.8031 31.5398 23.6042 31.6676C23.4053 31.7931 23.2503 31.9588 23.139 32.1648C23.0301 32.3684 22.9745 32.5921 22.9721 32.8359V33.5923C22.9721 33.9096 23.0301 34.1818 23.1461 34.4091C23.2621 34.634 23.4243 34.8068 23.6326 34.9276C23.8409 35.0459 24.0848 35.1051 24.3641 35.1051C24.5512 35.1051 24.7204 35.0791 24.8719 35.027C25.0235 34.9725 25.1549 34.8932 25.2661 34.7891C25.3774 34.6849 25.4614 34.5559 25.5183 34.402L26.7185 34.5369C26.6428 34.8542 26.4984 35.1312 26.2853 35.3679C26.0746 35.6023 25.8047 35.7846 25.4756 35.9148C25.1466 36.0426 24.7701 36.1065 24.3464 36.1065ZM30.1831 30.5455V31.5398H27.0474V30.5455H30.1831ZM27.8216 29.2386H29.1071V34.3594C29.1071 34.5322 29.1331 34.6648 29.1852 34.7571C29.2396 34.8471 29.3107 34.9086 29.3983 34.9418C29.4859 34.9749 29.5829 34.9915 29.6895 34.9915C29.7699 34.9915 29.8433 34.9856 29.9096 34.9737C29.9783 34.9619 30.0304 34.9512 30.0659 34.9418L30.2825 35.9467C30.2138 35.9704 30.1156 35.9964 29.9877 36.0249C29.8623 36.0533 29.7084 36.0698 29.5261 36.0746C29.2041 36.084 28.9141 36.0355 28.6561 35.929C28.398 35.8201 28.1932 35.652 28.0417 35.4247C27.8926 35.1974 27.8192 34.9134 27.8216 34.5724V29.2386Z" fill="#152536"/>
<path d="M22.204 0.489001C22.5356 0.406056 22.8817 0.399748 23.2161 0.470556C23.5505 0.541363 23.8644 0.687426 24.1339 0.897654C24.4034 1.10788 24.6214 1.37675 24.7715 1.68385C24.9216 1.99094 24.9997 2.3282 25 2.67V4.5H25.75C26.3467 4.5 26.919 4.73705 27.341 5.15901C27.7629 5.58097 28 6.15326 28 6.75V20.25C28 20.8467 27.7629 21.419 27.341 21.841C26.919 22.263 26.3467 22.5 25.75 22.5H6.25C5.65326 22.5 5.08097 22.263 4.65901 21.841C4.23705 21.419 4 20.8467 4 20.25V6.75C3.99979 6.17078 4.22296 5.61379 4.62307 5.19497C5.02317 4.77615 5.56938 4.52776 6.148 4.5015L22.204 0.489001ZM12.343 4.5H23.5V2.67C23.4997 2.5562 23.4736 2.44396 23.4235 2.34176C23.3735 2.23957 23.3008 2.15011 23.2111 2.08016C23.1213 2.0102 23.0168 1.96159 22.9055 1.938C22.7941 1.91441 22.6789 1.91646 22.5685 1.944L12.343 4.5ZM6.25 6C6.05109 6 5.86032 6.07902 5.71967 6.21967C5.57902 6.36032 5.5 6.55109 5.5 6.75V20.25C5.5 20.4489 5.57902 20.6397 5.71967 20.7803C5.86032 20.921 6.05109 21 6.25 21H25.75C25.9489 21 26.1397 20.921 26.2803 20.7803C26.421 20.6397 26.5 20.4489 26.5 20.25V6.75C26.5 6.55109 26.421 6.36032 26.2803 6.21967C26.1397 6.07902 25.9489 6 25.75 6H6.25Z" fill="#212529"/>
</svg>

<svg version="1.2" xmlns="http://www.w3.org/2000/svg" viewBox="0 0 33 38" width="33" height="38"><defs><image  width="23" height="15" id="img1" href="data:image/png;base64,iVBORw0KGgoAAAANSUhEUgAAABcAAAAPCAMAAAA4caRkAAAAAXNSR0IB2cksfwAAADxQTFRFAAAAAAAAAAAAAAAAAAAAAAAAAAAAAAAAAAAAAAAAAAAAAAAAAAAAAAAAAAAAAAAAAAAAAAAAAAAAAAAA0C8mMAAAABR0Uk5TqP/WAOH0/Ybf9mvg9+Tn7O/18uoM11khAAAAUUlEQVR4nJXOwQqAIACDYX9QEEQzev9XDDQpioq6tw7u+B22YTDfAPYSbu8+d+B34R7CKjxsxKY9LdqHqvoPctE/3Sk8V+1j0f7X8+5Os/DUHpBBGkhMdUkKAAAAAElFTkSuQmCC"/></defs><style>.a{fill:#152536}.b{fill:#212529}</style><path class="a" d="m4.7 36l-2.1-7.3h1.4l1.3 5.4h0.1l1.4-5.4h1.3l1.4 5.4 1.4-5.4h1.4l-2.1 7.3h-1.3l-1.4-5.1h-0.1l-1.5 5.1zm9.1 0.1q-0.5 0-0.9-0.2-0.4-0.2-0.6-0.5-0.3-0.4-0.3-0.9 0-0.5 0.2-0.8 0.2-0.3 0.5-0.5 0.2-0.2 0.6-0.3 0.4 0 0.8-0.1 0.5 0 0.8-0.1 0.3 0 0.4-0.1 0.1-0.1 0.1-0.3 0-0.4-0.2-0.6-0.2-0.2-0.7-0.2-0.5 0-0.7 0.2-0.3 0.2-0.4 0.5l-1.2-0.2q0.1-0.5 0.5-0.9 0.3-0.3 0.8-0.5 0.4-0.1 1-0.1 0.4 0 0.8 0.1 0.4 0.1 0.7 0.3 0.3 0.2 0.5 0.5 0.2 0.4 0.2 0.9v3.7h-1.2v-0.7h-0.1q-0.1 0.2-0.3 0.4-0.2 0.2-0.5 0.3-0.3 0.1-0.8 0.1zm0.4-0.9q0.4 0 0.6-0.2 0.3-0.1 0.5-0.4 0.1-0.3 0.1-0.6v-0.6q0 0.1-0.2 0.1-0.1 0-0.3 0.1-0.2 0-0.3 0-0.2 0-0.3 0.1-0.3 0-0.6 0.1-0.2 0.1-0.3 0.2-0.1 0.2-0.1 0.4 0 0.4 0.2 0.6 0.3 0.2 0.7 0.2zm4.7-6.5v7.3h-1.3v-7.3zm2.2 0v7.3h-1.3v-7.3zm3.4 7.4q-0.8 0-1.4-0.3-0.6-0.4-1-1-0.3-0.6-0.3-1.5 0-0.8 0.3-1.5 0.4-0.6 0.9-1 0.6-0.3 1.4-0.3 0.5 0 1 0.1 0.4 0.2 0.8 0.5 0.3 0.4 0.5 0.9 0.2 0.5 0.2 1.2v0.4h-4.5v-0.8h3.3q0-0.4-0.2-0.7-0.1-0.3-0.4-0.5-0.3-0.1-0.7-0.1-0.4 0-0.7 0.2-0.3 0.2-0.4 0.5-0.2 0.3-0.2 0.6v0.8q0 0.5 0.2 0.8 0.1 0.3 0.5 0.5 0.3 0.2 0.7 0.2 0.3 0 0.5-0.1 0.2-0.1 0.4-0.2 0.2-0.2 0.2-0.4l1.2 0.1q-0.1 0.5-0.4 0.9-0.3 0.3-0.8 0.5-0.5 0.2-1.1 0.2zm5.8-5.6v1h-3.1v-1zm-2.4-1.3h1.3v5.2q0 0.2 0.1 0.4 0.1 0.1 0.2 0.1 0.1 0.1 0.3 0.1 0.1 0 0.2 0 0.1 0 0.2-0.1l0.2 1q-0.1 0.1-0.3 0.1-0.2 0.1-0.5 0.1-0.5 0-0.9-0.2-0.3-0.1-0.6-0.5-0.2-0.3-0.2-0.8z"/><use  href="#img1" x="5" y="6"/><path class="b" d="m22.2 0.5q0.5-0.1 1 0 0.5 0.1 0.9 0.4 0.4 0.3 0.7 0.8 0.2 0.5 0.2 1v1.8h0.8c0.5 0 1.1 0.2 1.5 0.7 0.5 0.4 0.7 1 0.7 1.5v13.6c0 0.5-0.2 1.1-0.7 1.5-0.4 0.5-1 0.7-1.5 0.7h-19.6c-0.5 0-1.1-0.2-1.5-0.7-0.5-0.4-0.7-1-0.7-1.5v-13.5c0-0.6 0.2-1.2 0.6-1.6 0.4-0.4 1-0.7 1.5-0.7zm-9.8 4h11.1v-1.8q0-0.2 0-0.3-0.1-0.2-0.2-0.3-0.2-0.1-0.4-0.1-0.1-0.1-0.3 0zm-6.1 1.5q-0.3 0-0.5 0.2-0.2 0.2-0.2 0.5v13.5q0 0.3 0.2 0.5 0.2 0.3 0.5 0.3h19.5q0.3 0 0.5-0.3 0.3-0.2 0.3-0.5v-13.5q0-0.3-0.3-0.5-0.2-0.2-0.5-0.2z"/></svg>
